packages/web/src/assets/images/icons/trash.svg

<svg viewBox="0 0 448 512" xmlns="http://www.w3.org/2000/svg"><path d="m135.2 17.7-7.2 14.3h-96c-17.7 0-32 14.3-32 32s14.3 32 32 32h384c17.7 0 32-14.3 32-32s-14.3-32-32-32h-96l-7.2-14.3c-5.4-10.9-16.5-17.7-28.6-17.7h-120.4c-12.1 0-23.2 6.8-28.6 17.7zm280.8 110.3h-384l21.2 339c1.6 25.3 22.6 45 47.9 45h245.8c25.3 0 46.3-19.7 47.9-45z"/></svg>

<svg xmlns="http://www.w3.org/2000/svg" viewBox="0 0 448 512"><!--!Font Awesome Free 6.7.2 by @fontawesome - https://fontawesome.com License - https://fontawesome.com/license/free Copyright 2025 Fonticons, Inc.--><path d="M135.2 17.7L128 32 32 32C14.3 32 0 46.3 0 64S14.3 96 32 96l384 0c17.7 0 32-14.3 32-32s-14.3-32-32-32l-96 0-7.2-14.3C307.4 6.8 296.3 0 284.2 0L163.8 0c-12.1 0-23.2 6.8-28.6 17.7zM416 128L32 128 53.2 467c1.6 25.3 22.6 45 47.9 45l245.8 0c25.3 0 46.3-19.7 47.9-45L416 128z"/></svg>
